src/assets/flags/cu.svg

<?xml version="1.0" encoding="UTF-8"?>
<svg xmlns="http://www.w3.org/2000/svg" xmlns:xlink="http://www.w3.org/1999/xlink" width="25px" height="px" viewBox="0 0 25 19" version="1.1">
<g id="surface1">
<rect x="0" y="0" width="25" height="19" style="fill:rgb(0%,16.470589%,56.078434%);fill-opacity:1;stroke:none;"/>
<path style=" stroke:none;fill-rule:evenodd;fill:rgb(100%,100%,100%);fill-opacity:1;" d="M -0.00390625 3.808594 L 28.195312 3.808594 L 28.195312 7.621094 L -0.00390625 7.621094 Z M -0.00390625 11.429688 L 28.195312 11.429688 L 28.195312 15.242188 L -0.00390625 15.242188 Z M -0.00390625 11.429688 "/>
<path style=" stroke:none;fill-rule:evenodd;fill:rgb(79.607844%,8.235294%,8.235294%);fill-opacity:1;" d="M -0.00390625 0 L 16.179688 9.515625 L -0.00390625 19.011719 Z M -0.00390625 0 "/>
<path style=" stroke:none;fill-rule:evenodd;fill:rgb(100%,100%,100%);fill-opacity:1;" d="M 7.113281 12.109375 L 5.367188 10.789062 L 3.636719 12.121094 L 4.28125 9.960938 L 2.546875 8.621094 L 4.691406 8.605469 L 5.355469 6.449219 L 6.035156 8.597656 L 8.175781 8.601562 L 6.453125 9.953125 Z M 7.113281 12.109375 "/>
</g>
</svg>

<svg xmlns="http://www.w3.org/2000/svg" width="25" height="px" viewBox="0 0 25 19"><path d="M0 0h25v19H0z" style="fill:#002a8f;fill-opacity:1;stroke:none"/><path d="M-.004 3.809h28.2V7.62h-28.2Zm0 7.62h28.2v3.813h-28.2Zm0 0" style="stroke:none;fill-rule:evenodd;fill:#fff;fill-opacity:1"/><path d="M-.004 0 16.18 9.516-.004 19.012Zm0 0" style="stroke:none;fill-rule:evenodd;fill:#cb1515;fill-opacity:1"/><path d="m7.113 12.11-1.746-1.32-1.73 1.331.644-2.16-1.734-1.34 2.144-.016.664-2.156.68 2.149 2.14.004-1.722 1.351Zm0 0" style="stroke:none;fill-rule:evenodd;fill:#fff;fill-opacity:1"/></svg>
